X: 1249
T: An Dro Pharao
R: reel
M: 4/4
K: Gminor
|:G2 d2 d2 de|c2 cd B4|ABcA B2 G2|1 G^FGA F4:|2 BGA^F G4||
|:ABcA B2 G2|GFGA B2 A2|1 ABcA B2 D2|G^FGA F4:|2 ABcA B2 d2|BGA^F G4||

